X:110
T:Champion Jig                                                                                      
M:6/8                                                                                               
K:Am                                                                                                
EAB (cBA)|EAB (cBA)|BGE BGE|efe (dcA)|\                                                             
EAB (cBA)|EAB (cBA)|efe e2 (d|c)AA A3:|                                                             
G3 F3|EGc ecG|DGB dcB|ced cBA|\                                                                     
G3 F3|EGc ecG|DGB dcB|cee c3 :|
